X:1
T:Málaga, 76.76 D
T:Málaga, 76.76 D
T:Ada Rose Gibbs (1864-1905)
T:Public Domain Courtesy of the Cyber Hymnal™
C:Ada Rose Gibbs (1864-1905)
Z:Public Domain
Z:Courtesy of the Cyber Hymnal™
%%score ( 1 2 ) 3
L:1/8
Q:1/4=94
M:6/8
K:D
V:1 treble 
V:2 treble 
V:3 bass 
V:1
 [Fd][Fc][FB] [Gc]2 [GB] | [GB]3 [FA]3 | [GB][Gc][Gd] [FA]2 [DF] | [FA]6 | %4
 [E^A][EF][EA] [Ec]2 [Ed] | [Fc]3 [FB]3 | [^EB][EB][FB] [Ec]2 [Ec] | [Fc]6 | %8
 [Fd][Fd][Fd] [Ec]2 [Ec] | [FB]3 [FA]3 | [E^G][EG][EG] [GB]2 [Gc] | A6 | %12
 [FA][FA][FA] ([GB][GB])[Gd] | [FA]3 F3 | [GA][GB][Gc] [GB]2 [GA] | [Fd]6 |] %16
V:2
 x6 | x6 | x6 | x6 | x6 | x6 | x6 | x6 | x6 | x6 | x6 | A6 | x6 | x3 F3 | x6 | x6 |] %16
V:3
 [D,A,][D,A,][D,A,] [D,B,]2 [D,B,] | [D,C]3 [D,D]3 | [G,D][A,D][B,D] [D,D]2 [D,A,] | [D,D]6 | %4
 [F,C][F,C][F,C] [F,C]2 [F,C] | [B,,E]3 [B,,D]3 | [C,^G,][C,G,][C,G,] [C,G,]2 [C,G,] | [F,^A,]6 | %8
 [B,,B,][B,,B,][B,,B,] [C,^A,]2 [C,A,] | [D,B,]3 [D,B,]3 | [E,B,][E,B,][E,B,] [E,E]2 [E,E] | %11
 [A,C]6 | [D,D][D,D][D,D] ([G,D][G,D])[G,B,] | [D,D]3 [D,A,]3 | [A,C][A,D][A,E] [A,D]2 [A,C] | %15
 [D,D]6 |] %16

